src/assets/images/free-demat-compaign/ipo.svg

<svg width="48" height="48" viewBox="0 0 48 48" fill="none" xmlns="http://www.w3.org/2000/svg">
<path d="M0 46.9606V23.618C0.375685 22.804 1.01435 22.5786 1.89095 22.5786C16.6804 22.5911 31.4699 22.5911 46.2719 22.5911C47.4991 22.5911 48 23.1046 48 24.3318C48 31.6201 48 38.9209 48 46.2092C48 47.499 47.5116 47.9874 46.2218 47.9874C31.4448 47.9874 16.6679 47.9874 1.89095 48C1.01435 48 0.375685 47.762 0 46.9606ZM39.3843 35.2768C39.4093 35.2768 39.4344 35.2768 39.4594 35.2768C39.4594 34.2624 39.4845 33.2481 39.4594 32.2337C39.3843 29.9921 37.4808 28.2014 35.2142 28.2139C32.9851 28.2264 31.0942 30.0422 31.0441 32.2588C31.0065 34.2374 31.0065 36.2285 31.0441 38.2071C31.0817 40.3235 32.7973 42.0892 34.9136 42.2645C37.055 42.4273 39.0712 40.9496 39.3592 38.8207C39.5095 37.6561 39.3843 36.4539 39.3843 35.2768ZM22.5912 36.6418C23.1672 36.6418 23.6807 36.6543 24.1941 36.6418C26.3105 36.5666 28.0762 34.8385 28.2139 32.7346C28.3517 30.5932 26.8865 28.6146 24.7827 28.3266C23.6306 28.1638 22.4534 28.2389 21.2763 28.2264C20.3621 28.2264 19.7861 28.815 19.7861 29.7291C19.7861 30.4805 19.7861 31.2319 19.7861 31.9833C19.7861 34.9011 19.7861 37.8189 19.7861 40.7367C19.7861 41.3503 19.999 41.8387 20.5625 42.1267C21.5017 42.6151 22.5912 41.9514 22.6037 40.8494C22.6162 39.4719 22.6037 38.1069 22.6037 36.6668L22.5912 36.6418ZM14.1884 39.4594V31.019C14.6267 31.019 15.0274 31.019 15.4406 31.019C16.3423 31.019 16.981 30.4179 16.9684 29.6039C16.9684 28.8025 16.3298 28.2139 15.4532 28.2139C13.6624 28.2139 11.8591 28.2139 10.0684 28.2139C9.16671 28.2139 8.52805 28.8025 8.54057 29.629C8.54057 30.443 9.17923 31.019 10.0934 31.0315C10.5067 31.0315 10.9199 31.0315 11.3206 31.0315V39.4719C10.8573 39.4719 10.4315 39.4719 9.99322 39.4719C9.15419 39.4844 8.54057 40.0855 8.52805 40.8619C8.52805 41.6509 9.14166 42.2645 9.96817 42.277C11.8216 42.277 13.6875 42.277 15.5408 42.277C16.3423 42.277 16.9434 41.6509 16.9559 40.887C16.9559 40.098 16.3548 39.4844 15.5158 39.4719C15.0775 39.4719 14.6392 39.4719 14.1758 39.4719L14.1884 39.4594Z" fill="white"/>
<path d="M44.0549 0C44.8689 0.375685 45.1069 1.01435 45.0943 1.89095C45.0693 7.6264 45.0818 13.3493 45.0818 19.0848C45.0818 24.8202 45.0818 19.448 45.0818 19.6608H36.6414V19.1349C36.6414 13.3869 36.6414 7.63893 36.6289 1.89095C36.6289 1.01435 36.8668 0.375685 37.6683 0H44.0424L44.0549 0Z" fill="white"/>
<path d="M33.8369 19.6609H25.4215C25.4215 19.5106 25.3965 19.3603 25.3965 19.2101C25.3965 15.2278 25.3965 11.2456 25.3965 7.26329C25.3965 6.16128 25.935 5.6228 27.0245 5.6228C28.7526 5.6228 30.4933 5.6228 32.2214 5.6228C33.2608 5.6228 33.8243 6.17381 33.8243 7.20068C33.8243 11.233 33.8243 15.2529 33.8243 19.2852C33.8243 19.3979 33.8243 19.4981 33.8243 19.6609H33.8369Z" fill="white"/>
<path d="M14.1629 19.6483C14.1629 17.2564 14.1504 14.9021 14.1629 12.5478C14.1629 11.834 14.7765 11.258 15.5154 11.2455C17.4188 11.233 19.3223 11.233 21.2258 11.2455C21.9521 11.2455 22.5657 11.8215 22.5783 12.5478C22.6033 14.9021 22.5783 17.2564 22.5783 19.6483H14.1504H14.1629Z" fill="white"/>
<path d="M11.3339 19.6609H2.93108C2.93108 19.0973 2.88099 18.5463 2.9436 17.9953C3.03126 17.3567 3.59479 16.8808 4.2585 16.8683C6.16197 16.8558 8.06544 16.8558 9.96891 16.8683C10.7203 16.8683 11.2963 17.4569 11.3339 18.2082C11.3589 18.6716 11.3339 19.1474 11.3339 19.6609Z" fill="white"/>
<path d="M36.6536 35.2519C36.6536 36.1535 36.6536 37.0552 36.6536 37.9693C36.6536 38.8334 36.0525 39.4595 35.251 39.4721C34.4496 39.4721 33.8485 38.8459 33.8359 37.9818C33.8359 36.1535 33.8359 34.3377 33.8359 32.5094C33.8359 31.6453 34.4496 31.0192 35.251 31.0317C36.0274 31.0317 36.6285 31.6578 36.6411 32.4968C36.6411 33.411 36.6411 34.3377 36.6411 35.2519H36.6536Z" fill="white"/>
<path d="M22.6172 31.0314C23.1181 31.0314 23.5689 31.0189 24.0197 31.0314C24.8087 31.0565 25.4098 31.6826 25.3973 32.4465C25.3973 33.1854 24.7962 33.799 24.0323 33.8366C23.5689 33.8616 23.1056 33.8366 22.6172 33.8366V31.0314Z" fill="white"/>
</svg>

<svg width="48" height="48" fill="none" xmlns="http://www.w3.org/2000/svg"><path d="M0 46.96V23.619c.376-.814 1.014-1.04 1.891-1.04 14.79.013 29.579.013 44.38.013 1.228 0 1.729.514 1.729 1.74V46.21c0 1.29-.488 1.778-1.778 1.778-14.777 0-29.554 0-44.331.013-.877 0-1.515-.238-1.891-1.04zm39.384-11.683h.075c0-1.015.025-2.029 0-3.043-.075-2.242-1.978-4.033-4.245-4.02-2.229.012-4.12 1.828-4.17 4.045a156.85 156.85 0 0 0 0 5.948c.038 2.117 1.753 3.882 3.87 4.057 2.141.163 4.157-1.314 4.445-3.443.15-1.165.025-2.367.025-3.544zm-16.793 1.365c.576 0 1.09.012 1.603 0 2.117-.075 3.882-1.803 4.02-3.907.138-2.142-1.327-4.12-3.431-4.408-1.152-.163-2.33-.088-3.507-.1-.914 0-1.49.588-1.49 1.502v11.008c0 .613.213 1.102.776 1.39.94.488 2.03-.176 2.042-1.278.012-1.377 0-2.742 0-4.182l-.013-.025zm-8.403 2.817v-8.44h1.253c.901 0 1.54-.601 1.527-1.415 0-.802-.638-1.39-1.515-1.39h-5.385c-.901 0-1.54.588-1.527 1.415 0 .814.638 1.39 1.552 1.402h1.228v8.44H9.993c-.839.013-1.452.615-1.465 1.39 0 .79.614 1.404 1.44 1.416h5.573a1.4 1.4 0 0 0 1.415-1.39c0-.789-.601-1.403-1.44-1.415h-1.34l.012-.013zM44.055 0c.814.376 1.052 1.014 1.04 1.891-.026 5.735-.013 11.458-.013 17.194v.576h-8.44v-.526c0-5.748 0-11.496-.013-17.244 0-.877.238-1.515 1.04-1.891h6.386zM33.837 19.66H25.42c0-.15-.024-.3-.024-.45V7.263c0-1.102.538-1.64 1.628-1.64h5.196c1.04 0 1.603.55 1.603 1.578V19.66h.013zM14.163 19.648c0-2.392-.013-4.746 0-7.1 0-.714.614-1.29 1.352-1.303 1.904-.012 3.807-.012 5.71 0 .727 0 1.34.577 1.353 1.303.025 2.354 0 4.708 0 7.1H14.15h.013zM11.334 19.66H2.93c0-.563-.05-1.114.013-1.665.087-.638.65-1.114 1.314-1.127 1.904-.012 3.807-.012 5.71 0 .752 0 1.328.589 1.366 1.34.025.464 0 .94 0 1.453z" fill="#fff"/><path d="M36.654 35.252v2.717c0 .864-.602 1.49-1.403 1.503-.801 0-1.402-.626-1.415-1.49v-5.473c0-.864.614-1.49 1.415-1.477.776 0 1.378.626 1.39 1.465v2.755h.013zM22.617 31.031c.501 0 .952-.012 1.403 0 .789.026 1.39.652 1.377 1.416 0 .738-.6 1.352-1.365 1.39-.463.025-.926 0-1.415 0V31.03z" fill="#fff"/></svg>
